src/resources/icons-ec/src/all/language.svg

<?xml version="1.0" encoding="UTF-8"?>
<svg width="48px" height="48px" viewBox="0 0 48 48" version="1.1" xmlns="http://www.w3.org/2000/svg" xmlns:xlink="http://www.w3.org/1999/xlink">
    <title>EC/Icons/General/2XL_48x48px/Icon-Language</title>
    <defs>
        <path d="M7,2 C3.13209164,2 2,3.04223536 2,7 L2,33 C2,36.9631662 3.1103758,37.9487259 7,38 L13,38 L13,46 L30,38 L40,38 C44.1138181,38 46,36.9423945 46,33 L46,7 C46,3.01202202 45.0014924,2 40,2 L7,2 Z" id="path-1"></path>
    </defs>
    <g id="EC/Icons/General/2XL_48x48px/Icon-Language" stroke="none" stroke-width="1">
        <mask id="mask-2">
            <use xlink:href="#path-1"></use>
        </mask>
        <use id="Language" xlink:href="#path-1"></use>
    </g>
</svg>

<?xml version="1.0" encoding="UTF-8" ?>
<svg
  xmlns="http://www.w3.org/2000/svg"
  xmlns:xlink="http://www.w3.org/1999/xlink"
  viewBox="0 0 48 48"
><defs><style
    >.cls-1{fill:none;}.cls-2{mask:url(#mask);}.cls-4{fill-rule:evenodd;}</style><mask
      id="mask"
      x="2"
      y="2"
      width="44"
      height="44"
      maskUnits="userSpaceOnUse"
    /></defs><g id="transparant_bg"><rect
      class="cls-1"
      width="48"
      height="48"
    /></g><g id="Layer_1"><g><path
        class="cls-4"
        d="M7,2c-3.87,0-5,1.04-5,5v26c0,3.96,1.11,4.95,5,5h6v8l17-8h10c4.11,0,6-1.06,6-5V7c0-3.99-1-5-6-5H7Z"
      /><g class="cls-2" /></g></g></svg>
